X:1
T:Waiting on the Lord
T:Charles Frederick Weigele, 1903
T:Waiting on the Lord
T:Public Domain
T:Public Domain
T:Public Domain
C:Charles Frederick Weigele, 1903
Z:Public Domain
%%score ( 1 2 ) ( 3 4 )
L:1/8
M:4/4
K:Eb
V:1 treble 
V:2 treble 
V:3 bass 
V:4 bass 
V:1
 [GB]>[Ac] [GB]>[EG] E2 [GB]>[GB] | [Ac]2 [Bd]2 [ce]2 [Ac]2 | [GB]>[Ac] [GB]>[EG] E2 ([GB]>[GB]) | %3
w: 1.~Wait- ing on the Lord, for the|ise giv- en; Wait-|ing on the Lord, to send *|
w: 2.~Wait- ing on the Lord, giv- ing|to Je- sus; Wait-|ing on the Lord, till~from sin *|
w: 3.~Wait- ing on the Lord, long- ing|mount high- er; Wait-|ing on the Lord, having great *|
 [FA]2 [EG]2 [DF]2 E2 | [GB]>[Ac] [GB]>[EG] E2 [GB]>[GB] | [Ac]2 [Bd]2 [ce]2 [Ac]2 | %6
w: Heav- en; Wait- ing|the Lord, by our faith re- ceiv-|Wait- ing in the|
w: frees us; Wait- ing|the Lord for the heav’n- ly breez-|Wait- ing in the|
w: si- re; Wait- ing|the Lord, for the heav’n- ly fi-|Wait- ing in the|
 [GB]>[EG] [DF]>[FA] [EG]2 [DF]2 | [B,E]6 ||"^Refrain" z B | (G>G G>G) [Ad]3 [AB] | %10
w: up- per room. The pow- er!|the|pow-|Gives * * * vic- t’ry|
w: up- per room. * * *||||
w: up- per room. * * *||||
 (A>A A>A) [GB]3 G | [GB]>[FA] [FA]>[FA] [FA]2 [Ac]2 | [Ac]>[GB] [GB]>[GB] [GB]3 B | %13
w: ver * * * sin, and|ty with- in; The pow- er!|the pow- er! The pow’r they|
w: |||
w: |||
 (G>G G>G) [Ad]3 [AB] | (A>A A>A) [GB]3 G | [GB]>[GB] [GB]>[Ac] [DG]2 [DF]2 | [B,E]8 |] %17
w: at * * * Pen- te-||||
w: ||||
w: ||||
V:2
 x4 E2 x2 | x8 | x4 E2 x2 | x6 E2 | x4 E2 x2 | x8 | x8 | x6 || x B | e4 x4 | c4 x3/2 G x3/2 | x8 | %12
w: prom-||from|on|ing;||||er!|o-|pur- i-||
w: all||He|on|es;||||||||
w: to||de-|on|re;||||||||
 x7 B | e4 x4 | c4 x3/2 G x3/2 | x8 | x8 |] %17
w: had|cost.||||
w: |||||
w: |||||
V:3
 [E,E]>[E,E] [E,E]>[E,B,] [E,G,]2 [E,E]>[E,E] | [A,E]2 [A,E]2 [A,E]2 [A,E]2 | %2
w: ~ ~ ~ ~ ~ ~ ~|~ ~ ~ ~|
 [E,E]>[E,E] [E,E]>[E,B,] [G,B,]2 ([B,E]>[B,E]) | B,2 B,2 [B,,A,]2 [E,G,]2 | %4
w: ~ ~ ~ ~ ~ ~ *|~ ~ ~ ~|
 [E,E]>[E,E] [E,E]>[E,B,] [E,G,]2 [E,E]>[E,E] | [A,E]2 [A,E]2 [A,C]2 [A,E]2 | %6
w: ~ ~ ~ ~ ~ ~ ~|~ ~ ~ ~|
 [B,E]>B, B,>B, B,2 [B,,A,]2 | [E,G,]6 || z B, | [E,B,]>[E,B,] [E,B,]>[E,B,] B,3 B, | %10
w: ~ ~ ~ ~ ~ The|pow’r!|The|te- cost- al pow’r! ~ ~|
 [B,,B,]>[B,,B,] [B,,C]>[B,,D] [E,E]3 [E,B,] | [B,,B,]>[B,,B,] [B,,B,]>[B,,B,] [B,,B,]2 [D,B,]2 | %12
w: ~ ~ ~ ~ ~ ~|~ ~ ~ Pen- te- cost-|
 [E,B,]>[E,B,] [E,B,]>[E,B,] [E,B,]3 B, | [E,B,]>[E,B,] [E,B,]>[E,B,] B,3 B, | %14
w: al pow’r, the Pen- te- cost-|pow’r! * * * * *|
 [B,,B,]>[B,,B,] [B,,C]>[B,,D] [E,E]3 [E,B,] | [B,,B,]>[B,,B,] [B,,B,]>[B,,B,] [B,,B,]2 [B,,A,]2 | %16
w: ||
 [E,G,]8 |] %17
w: |
V:4
 x8 | x8 | x8 | B,2 B,2 x4 | x8 | x8 | x3/2 B,/ B,>B, B,2 x2 | x6 || x B, | x4 B,3 B, | x8 | x8 | %12
w: |||~ ~|||Pen- te- cost- al||Pen-|~ ~|||
 x7 B, | x4 B,3 B, | x8 | x8 | x8 |] %17
w: al|||||

